X:422
T: Der Schwatzhafte (141), S. 316
N: T0310
O: Luxemburg
S: Singendes Volk, Esch-Alzette 1937, posth.]
N: Esch-Alzette, hhh Dominik Mller, 7.6.1915
R: Liebeslied]
M: 2/4
L: 1/8
K: G
D | GGFE | EDD
D | GGAB | A2G2 | z2
d2 | BBBB | B3d | edcB | c2z
B | AAAA | d3c | BBAA | G2z

@@@ Tune index: 8476
